X: 26090
T: McDonnell's Rant
R: slip jig
M: 9/8
K: Gmajor
BAG GAG GDG|BAG GDG ABc|BAG GAG GDG|cAF FAF ABc:|
d2d BGG BGG|d2d BGG ABc|d2d BGG BGG|cAF FAF ABc:|

